dist/assets/images/icons/btn-close.svg

<svg width="30" height="30" viewBox="0 0 30 30" fill="none" xmlns="http://www.w3.org/2000/svg">
<circle cx="15" cy="15" r="14.8" fill="#EFEFEF" stroke="#E2E2E2" stroke-width="0.4"/>
<path d="M21.1764 10.0676L19.9323 8.82353L15 13.7559L10.0676 8.82353L8.82349 10.0676L13.7558 15L8.82349 19.9324L10.0676 21.1765L15 16.2441L19.9323 21.1765L21.1764 19.9324L16.2441 15L21.1764 10.0676Z" fill="black"/>
</svg>

<svg width="30" height="30" fill="none" xmlns="http://www.w3.org/2000/svg"><circle cx="15" cy="15" r="14.8" fill="#EFEFEF" stroke="#E2E2E2" stroke-width=".4"/><path d="M21.176 10.068l-1.244-1.244L15 13.756l-4.932-4.932-1.245 1.244L13.756 15l-4.933 4.932 1.245 1.245L15 16.244l4.932 4.933 1.244-1.245L16.244 15l4.932-4.932z" fill="#000"/></svg>
